X:1
T:Bryntirion, 87.87.87
T:Bryntirion, 87.87.87
T:Ascan Henri Theodore Lutteroth (1802-1889)
T:Public Domain Courtesy of the Cyber Hymnal™
C:Ascan Henri Theodore Lutteroth (1802-1889)
Z:Public Domain
Z:Courtesy of the Cyber Hymnal™
%%score ( 1 2 ) ( 3 4 )
L:1/8
Q:1/4=125
M:3/4
K:F
V:1 treble 
V:2 treble 
V:3 bass 
V:4 bass 
V:1
 [FA]4 [EB]2 | [Fc]4 [Fc]2 | [Fd]4 [Gd]2 | [Ac]2 [FA]4 | [CA]4 [^CG]2 | [DF]4 F2 | [FG]4 [EG]2 | %7
 [FA]6 | [FA]4 [EB]2 | [Fc]4 [Fc]2 | [Fd]4 d2 | [Ac]2 [FA]4 | [Ec]4 [F=B]2 | [EA]4 [CA]2 | %14
 A4 [E^G]2 | [EA]6 | (B2 A2) [EG]2 | [FA]4 [Cc]2 | ([^CG]2 [DF]2) [CE]2 | [DF]4 F2 | %20
 (G2 A2) [FB]2 | [FA]4 [FA]2 | [FG]4 [EG]2 | F6 |] %24
V:2
 x6 | x6 | x6 | x6 | x6 | x4 F2 | x6 | x6 | x6 | x6 | x4 (FG) | x6 | x6 | x6 | (F2 E2) x2 | x6 | %16
 F4 x2 | x6 | x6 | x4 F2 | F4 x2 | x6 | x6 | F6 |] %24
V:3
 [F,C]4 [G,C]2 | [A,C]4 [F,A,]2 | [D,B,]4 [E,B,]2 | [F,A,]2 [F,C]4 | F,4 [E,G,]2 | %5
 [D,A,]4 [A,,C]2 | [B,,D]4 [C,C]2 | [F,C]6 | [F,C]4 [G,C]2 | [A,C]4 [F,A,]2 | B,4 B,2 | %11
 [F,A,]2 [F,C]4 | [C,E]4 [D,D]2 | [E,C]4 [F,A,]2 | ([D,D]2 [E,C]2) [E,=B,]2 | [A,C]6 | %16
 ([G,D]2 [C,C]2) [C,B,]2 | [F,A,]4 F,2 | ([E,G,]2 [D,A,]2) [A,,A,]2 | [D,A,]4 [D,A,]2 | %20
 ([B,D]2 [A,C]2) [G,B,]2 | [A,C]4 [A,,C]2 | [B,,D]4 (CB,) | [F,A,]6 |] %24
V:4
 x6 | x6 | x6 | x6 | F,4 x2 | x6 | x6 | x6 | x6 | x6 | (B,,3 C,) (D,E,) | x6 | x6 | x6 | x6 | x6 | %16
 x6 | x4 F,2 | x6 | x6 | x6 | x6 | x4 C,2 | x6 |] %24

